!!!OTL: Kannenlied
!!!ARE: Europa, Mitteleuropa, Deutschland
!!!SCT: A0332
!!!YEM: Copyright 1995, estate of Helmut Schaffrath.
**kern
*ICvox
*Ivox
*M4/2
*k[f#c#]
*D:
{2dd
=1
2.dd
4dd
2dd
2dd
=2
1a
1a}
=3
{2.ee
4dd
2ccn
2b
=4
1a
2r}
{2a
=5
2.a
4b
2ccn
2dd
=6
1ccn
1a}
=7
{2.a
4g
2fn
2e
=8
1d
2r}
{2d
=9
2fn
2fn
4g
4g
2g
=10
1a
2r}
{2b
=11
2ccn
2a
2b
2g
=12
1a
2r}
{2ccn
=13
2ccn
2a
2b
2g
=14
1a
2r}
{2dd
=15
2dd
2dd
2dd
2dd
=16
1a
2.a}
{4a
=17
2a
2a
2g
2e
=18
1d
2r}
{2g
=19
2a
2fn
2g
2e
=20
1d
2r}
==
!!!AGN: Romanze, Ballade, Lied, Trinklied
!! Finck 1536 No. 10; Forster II (1540) No. 63
!!!ONB: ESAC (Essen Associative Code) Database: ALTDEU
!!!AMT: simple quadruple
!!!AIN: vox
!!!EED: Helmut Schaffrath
!!!EEV: 1.0
*-
